X: 211
T:Croughly, a Strathspey
B:William Marshall's Scottish Airs, Melodies, Strathspeys, Reels &c (1822)
C:William Marshall
L:1/8
M:C
O:Scotland
R:Strathspey
Z:Clark Bernst + Richard Robinson
%%Page:54 - 2
F:http://richardrobinson.tunebook.org.uk/tune/4054
%%TBL:{"version":1,"type":"tune","id":"4054"}
K:F
%%staves {1 2}
V:1
c | \
A<d-d>.e !trill!g2 (df) | !trill!e>d c<g a/g/f/e/ ce | \
A<d-d>e !trill!g2 (df) | !trill!e>d a/g/f/e/ {e}d2 d :|
E | \
~F>G A<B c<FA<F | ~E>F G<c G/F/E/D/ CE | \
~F>GAB cFAg | !trill!f>d f/e/d/^c/ d2 (DE) |
~F>G A<B c<FA<F | ~E>F G<c G/F/E/D/ CE | \
F<AG<B A<fe<g | !trill!f>d f/e/d/^c/ {c}d2 d |]
V:2 middle=d clef=bass
L:1/4
z/ | dddd | cccc | dddf | gadd/ :| \
z/ | ffff | cccc | fffa | gadd | ffff | cccc | defg | aAdd/ |]

